X:4
T:Blackthorn Stick, The
S:The Session: https://thesession.org/tunes/702#setting702
S:https://JamBuddy.live 2025
C:Traditional
R:jig
K:G
M:6/8
L:1/8
Q:113
d |: gfg ege| dBG AGE| DGG FGA| BGB A2 d|
| gfg age| dBG AGE| DGG FGA|1 BGG G2 d:|2 BGG G2 d|] 
|: edd gdd| edd gdd| e2 e gfg| edB A2 d|
| gfg age| dBG AGE| DGG FGA|1 BGG G2 d:|2 BGG G3 |]

